;FLAVOR:UltiGCode
;TIME:2131      
;MATERIAL:3298      
;MATERIAL2:0         

;Layer count: 159
;LAYER:0
M107
M140 S60		; override temps and retraction speed
M104 S220
M207 S5.5 F2100
G11				; deretract now to avoid f/w bug
G0 F15000 X97.00 Y94.50 Z0.25
;TYPE:SKIRT
G1 F1800 X133.00 Y94.50 E3.60000
G1 X133.00 Y130.50 E7.20000
G1 X97.00 Y130.50 E10.80000
G1 X97.00 Y94.50 E14.40000
G0 F15000 X97.40 Y94.90
G1 F1800 X132.60 Y94.90 E17.92000
G1 X132.60 Y130.10 E21.44000
G1 X97.40 Y130.10 E24.96000
G1 X97.40 Y94.90 E28.48000
G0 F15000 X97.80 Y95.30
G1 F1800 X132.20 Y95.30 E31.92000
G1 X132.20 Y129.70 E35.36000
G1 X97.80 Y129.70 E38.80000
G1 X97.80 Y95.30 E42.24000
G10
G0 F15000 X103.60 Y101.10
;TYPE:WALL-INNER
G11
G1 F1800 X126.40 Y101.10 E44.52000
G1 X126.40 Y123.90 E46.80000
G1 X103.60 Y123.90 E49.08000
G1 X103.60 Y101.10 E51.36000
G0 F15000 X103.20 Y100.70
;TYPE:WALL-OUTER
G1 F1800 X126.80 Y100.70 E53.72000
G1 X126.80 Y124.30 E56.08000
G1 X103.20 Y124.30 E58.44000
G1 X103.20 Y100.70 E60.80000
G0 F15000 X103.81 Y101.26
;TYPE:FILL
G1 F1800 X126.24 Y123.69 E63.97251
G0 F15000 X125.72 Y123.74
G1 F1800 X103.76 Y101.78 E67.07812
G0 F15000 X103.76 Y102.34
G1 F1800 X125.15 Y123.74 E70.10369
G0 F15000 X124.59 Y123.74
G1 F1800 X103.76 Y102.91 E73.04928
G0 F15000 X103.76 Y103.48
G1 F1800 X124.02 Y123.74 E75.91490
G0 F15000 X123.46 Y123.74
G1 F1800 X103.76 Y104.04 E78.70048
G0 F15000 X103.76 Y104.61
G1 F1800 X122.89 Y123.74 E81.40608
G0 F15000 X122.33 Y123.74
G1 F1800 X103.76 Y105.17 E84.03171
G0 F15000 X103.76 Y105.74
G1 F1800 X121.76 Y123.74 E86.57729
G0 F15000 X121.19 Y123.74
G1 F1800 X103.76 Y106.31 E89.04283
G0 F15000 X103.76 Y106.87
G1 F1800 X120.63 Y123.74 E91.42847
G0 F15000 X120.06 Y123.74
G1 F1800 X103.76 Y107.44 E93.73406
G0 F15000 X103.76 Y108.00
G1 F1800 X119.50 Y123.74 E95.95961
G0 F15000 X118.93 Y123.74
G1 F1800 X103.76 Y108.57 E98.10526
G0 F15000 X103.76 Y109.13
G1 F1800 X118.36 Y123.74 E100.17086
G0 F15000 X117.80 Y123.74
G1 F1800 X103.76 Y109.70 E102.15641
G0 F15000 X103.76 Y110.26
G1 F1800 X117.23 Y123.74 E104.06207
G0 F15000 X116.67 Y123.74
G1 F1800 X103.76 Y110.83 E105.88767
G0 F15000 X103.76 Y111.40
G1 F1800 X116.10 Y123.74 E107.63324
G0 F15000 X115.54 Y123.74
G1 F1800 X103.76 Y111.96 E109.29890
G0 F15000 X103.76 Y112.53
G1 F1800 X114.97 Y123.74 E110.88437
G0 F15000 X114.40 Y123.74
G1 F1800 X103.76 Y113.09 E112.38980
G0 F15000 X103.76 Y113.66
G1 F1800 X113.84 Y123.74 E113.81533
G0 F15000 X113.27 Y123.74
G1 F1800 X103.76 Y114.22 E115.16081
G0 F15000 X103.76 Y114.79
G1 F1800 X112.71 Y123.74 E116.42625
G0 F15000 X112.14 Y123.74
G1 F1800 X103.76 Y115.36 E117.61179
G0 F15000 X103.76 Y115.92
G1 F1800 X111.58 Y123.74 E118.71728
G0 F15000 X111.01 Y123.74
G1 F1800 X103.76 Y116.49 E119.74272
G0 F15000 X103.76 Y117.05
G1 F1800 X110.44 Y123.74 E120.68820
G0 F15000 X109.88 Y123.74
G1 F1800 X103.76 Y117.62 E121.55370
G0 F15000 X103.76 Y118.18
G1 F1800 X109.31 Y123.74 E122.33915
G0 F15000 X108.75 Y123.74
G1 F1800 X103.76 Y118.75 E123.04463
G0 F15000 X103.76 Y119.31
G1 F1800 X108.18 Y123.74 E123.67014
G0 F15000 X107.62 Y123.74
G1 F1800 X103.76 Y119.88 E124.21560
G0 F15000 X103.76 Y120.45
G1 F1800 X107.05 Y123.74 E124.68109
G0 F15000 X106.48 Y123.74
G1 F1800 X103.76 Y121.01 E125.06660
G0 F15000 X103.76 Y121.58
G1 F1800 X105.92 Y123.74 E125.37207
G0 F15000 X105.35 Y123.74
G1 F1800 X103.76 Y122.14 E125.59750
G0 F15000 X103.76 Y122.71
G1 F1800 X104.79 Y123.74 E125.74302
G0 F15000 X104.22 Y123.74
G1 F1800 X103.76 Y123.28 E125.80850
G0 F15000 X104.37 Y101.26
G1 F1800 X126.24 Y123.13 E128.90103
G0 F15000 X126.24 Y122.56
G1 F1800 X104.94 Y101.26 E131.91359
G0 F15000 X105.50 Y101.26
G1 F1800 X126.24 Y122.00 E134.84610
G0 F15000 X126.24 Y121.43
G1 F1800 X106.07 Y101.26 E137.69864
G0 F15000 X106.63 Y101.26
G1 F1800 X126.24 Y120.86 E140.47121
G0 F15000 X126.24 Y120.30
G1 F1800 X107.20 Y101.26 E143.16373
G0 F15000 X107.77 Y101.26
G1 F1800 X126.24 Y119.73 E145.77627
G0 F15000 X126.24 Y119.17
G1 F1800 X108.33 Y101.26 E148.30878
G0 F15000 X108.90 Y101.26
G1 F1800 X126.24 Y118.60 E150.76131
G0 F15000 X126.24 Y118.04
G1 F1800 X109.46 Y101.26 E153.13386
G0 F15000 X110.03 Y101.26
G1 F1800 X126.24 Y117.47 E155.42637
G0 F15000 X126.24 Y116.91
G1 F1800 X110.59 Y101.26 E157.63891
G0 F15000 X111.16 Y101.26
G1 F1800 X126.24 Y116.34 E159.77140
G0 F15000 X126.24 Y115.77
G1 F1800 X111.72 Y101.26 E161.82392
G0 F15000 X112.29 Y101.26
G1 F1800 X126.24 Y115.21 E163.79647
G0 F15000 X126.24 Y114.64
G1 F1800 X112.86 Y101.26 E165.68897
G0 F15000 X113.42 Y101.26
G1 F1800 X126.24 Y114.08 E167.50149
G0 F15000 X126.24 Y113.51
G1 F1800 X113.99 Y101.26 E169.23405
G0 F15000 X114.55 Y101.26
G1 F1800 X126.24 Y112.94 E170.88656
G0 F15000 X126.24 Y112.38
G1 F1800 X115.12 Y101.26 E172.45909
G0 F15000 X115.69 Y101.26
G1 F1800 X126.24 Y111.81 E173.95165
G0 F15000 X126.24 Y111.25
G1 F1800 X116.25 Y101.26 E175.36417
G0 F15000 X116.82 Y101.26
G1 F1800 X126.24 Y110.68 E176.69671
G0 F15000 X126.24 Y110.12
G1 F1800 X117.38 Y101.26 E177.94928
G0 F15000 X117.95 Y101.26
G1 F1800 X126.24 Y109.55 E179.12180
G0 F15000 X126.24 Y108.98
G1 F1800 X118.51 Y101.26 E180.21435
G0 F15000 X119.08 Y101.26
G1 F1800 X126.24 Y108.42 E181.22686
G0 F15000 X126.24 Y107.85
G1 F1800 X119.64 Y101.26 E182.15939
G0 F15000 X120.21 Y101.26
G1 F1800 X126.24 Y107.29 E183.01195
G0 F15000 X126.24 Y106.72
G1 F1800 X120.78 Y101.26 E183.78447
G0 F15000 X121.34 Y101.26
G1 F1800 X126.24 Y106.16 E184.47701
G0 F15000 X126.24 Y105.59
G1 F1800 X121.91 Y101.26 E185.08950
G0 F15000 X122.47 Y101.26
G1 F1800 X126.24 Y105.03 E185.62202
G0 F15000 X126.24 Y104.46
G1 F1800 X123.04 Y101.26 E186.07457
G0 F15000 X123.61 Y101.26
G1 F1800 X126.24 Y103.89 E186.44708
G0 F15000 X126.24 Y103.33
G1 F1800 X124.17 Y101.26 E186.73961
G0 F15000 X124.74 Y101.26
G1 F1800 X126.24 Y102.76 E186.95216
G0 F15000 X126.24 Y102.20
G1 F1800 X125.30 Y101.26 E187.08467
G0 F15000 X125.87 Y101.26
G1 F1800 X126.24 Y101.63 E187.13721
;LAYER:1
M106 S17
G0 F15000 X126.40 Y101.10 Z0.38
;TYPE:WALL-INNER
G1 F1920 X126.40 Y123.90 E188.27721
G1 X103.60 Y123.90 E189.41721
G1 X103.60 Y101.10 E190.55721
G1 X126.40 Y101.10 E191.69721
G0 F15000 X126.80 Y100.70
;TYPE:WALL-OUTER
G1 F1920 X126.80 Y124.30 E192.87721
G1 X103.20 Y124.30 E194.05721
G1 X103.20 Y100.70 E195.23721
G1 X126.80 Y100.70 E196.41721
G0 F15000 X126.24 Y101.45
;TYPE:FILL
G1 F1920 X103.95 Y123.74 E197.99339
G0 F15000 X103.76 Y123.36
G1 F1920 X125.86 Y101.26 E199.55627
G0 F15000 X125.30 Y101.26
G1 F1920 X103.76 Y122.80 E201.07917
G0 F15000 X103.76 Y122.23
G1 F1920 X124.73 Y101.26 E202.56208
G0 F15000 X124.17 Y101.26
G1 F1920 X103.76 Y121.67 E204.00496
G0 F15000 X103.76 Y121.10
G1 F1920 X123.60 Y101.26 E205.40786
G0 F15000 X123.03 Y101.26
G1 F1920 X103.76 Y120.53 E206.77078
G0 F15000 X103.76 Y119.97
G1 F1920 X122.47 Y101.26 E208.09367
G0 F15000 X121.90 Y101.26
G1 F1920 X103.76 Y119.40 E209.37657
G0 F15000 X103.76 Y118.84
G1 F1920 X121.34 Y101.26 E210.61949
G0 F15000 X120.77 Y101.26
G1 F1920 X103.76 Y118.27 E211.82238
G0 F15000 X103.76 Y117.70
G1 F1920 X120.21 Y101.26 E212.98529
G0 F15000 X119.64 Y101.26
G1 F1920 X103.76 Y117.14 E214.10821
G0 F15000 X103.76 Y116.57
G1 F1920 X119.07 Y101.26 E215.19111
G0 F15000 X118.51 Y101.26
G1 F1920 X103.76 Y116.01 E216.23399
G0 F15000 X103.76 Y115.44
G1 F1920 X117.94 Y101.26 E217.23688
G0 F15000 X117.38 Y101.26
G1 F1920 X103.76 Y114.88 E218.19978
G0 F15000 X103.76 Y114.31
G1 F1920 X116.81 Y101.26 E219.12266
G0 F15000 X116.25 Y101.26
G1 F1920 X103.76 Y113.75 E220.00555
G0 F15000 X103.76 Y113.18
G1 F1920 X115.68 Y101.26 E220.84846
G0 F15000 X115.11 Y101.26
G1 F1920 X103.76 Y112.61 E221.65134
G0 F15000 X103.76 Y112.05
G1 F1920 X114.55 Y101.26 E222.41424
G0 F15000 X113.98 Y101.26
G1 F1920 X103.76 Y111.48 E223.13715
G0 F15000 X103.76 Y110.92
G1 F1920 X113.42 Y101.26 E223.82004
G0 F15000 X112.85 Y101.26
G1 F1920 X103.76 Y110.35 E224.46294
G0 F15000 X103.76 Y109.79
G1 F1920 X112.29 Y101.26 E225.06586
G0 F15000 X111.72 Y101.26
G1 F1920 X103.76 Y109.22 E225.62875
G0 F15000 X103.76 Y108.65
G1 F1920 X111.16 Y101.26 E226.15165
G0 F15000 X110.59 Y101.26
G1 F1920 X103.76 Y108.09 E226.63457
G0 F15000 X103.76 Y107.52
G1 F1920 X110.02 Y101.26 E227.07747
G0 F15000 X109.46 Y101.26
G1 F1920 X103.76 Y106.96 E227.48038
G0 F15000 X103.76 Y106.39
G1 F1920 X108.89 Y101.26 E227.84327
G0 F15000 X108.33 Y101.26
G1 F1920 X103.76 Y105.83 E228.16617
G0 F15000 X103.76 Y105.26
G1 F1920 X107.76 Y101.26 E228.44904
G0 F15000 X107.19 Y101.26
G1 F1920 X103.76 Y104.69 E228.69194
G0 F15000 X103.76 Y104.13
G1 F1920 X106.63 Y101.26 E228.89484
G0 F15000 X106.06 Y101.26
G1 F1920 X103.76 Y103.56 E229.05772
G0 F15000 X103.76 Y103.00
G1 F1920 X105.50 Y101.26 E229.18062
G0 F15000 X104.93 Y101.26
G1 F1920 X103.76 Y102.43 E229.26353
G0 F15000 X103.76 Y101.87
G1 F1920 X104.37 Y101.26 E229.30641
G0 F15000 X126.24 Y102.02
G1 F1920 X104.51 Y123.74 E230.84257
G0 F15000 X105.08 Y123.74
G1 F1920 X126.24 Y102.58 E232.33873
G0 F15000 X126.24 Y103.15
G1 F1920 X105.64 Y123.74 E233.79491
G0 F15000 X106.21 Y123.74
G1 F1920 X126.24 Y103.71 E235.21107
G0 F15000 X126.24 Y104.28
G1 F1920 X106.78 Y123.74 E236.58724
G0 F15000 X107.34 Y123.74
G1 F1920 X126.24 Y104.84 E237.92339
G0 F15000 X126.24 Y105.41
G1 F1920 X107.91 Y123.74 E239.21955
G0 F15000 X108.47 Y123.74
G1 F1920 X126.24 Y105.97 E240.47573
G0 F15000 X126.24 Y106.54
G1 F1920 X109.04 Y123.74 E241.69188
G0 F15000 X109.61 Y123.74
G1 F1920 X126.24 Y107.11 E242.86805
G0 F15000 X126.24 Y107.67
G1 F1920 X110.17 Y123.74 E244.00423
G0 F15000 X110.74 Y123.74
G1 F1920 X126.24 Y108.24 E245.10038
G0 F15000 X126.24 Y108.80
G1 F1920 X111.30 Y123.74 E246.15655
G0 F15000 X111.87 Y123.74
G1 F1920 X126.24 Y109.37 E247.17274
G0 F15000 X126.24 Y109.93
G1 F1920 X112.43 Y123.74 E248.14890
G0 F15000 X113.00 Y123.74
G1 F1920 X126.24 Y110.50 E249.08507
G0 F15000 X126.24 Y111.06
G1 F1920 X113.56 Y123.74 E249.98126
G0 F15000 X114.13 Y123.74
G1 F1920 X126.24 Y111.63 E250.83742
G0 F15000 X126.24 Y112.20
G1 F1920 X114.70 Y123.74 E251.65360
G0 F15000 X115.26 Y123.74
G1 F1920 X126.24 Y112.76 E252.42983
G0 F15000 X126.24 Y113.33
G1 F1920 X115.83 Y123.74 E253.16607
G0 F15000 X116.39 Y123.74
G1 F1920 X126.24 Y113.89 E253.86229
G0 F15000 X126.24 Y114.46
G1 F1920 X116.96 Y123.74 E254.51852
G0 F15000 X117.52 Y123.74
G1 F1920 X126.24 Y115.03 E255.13476
G0 F15000 X126.24 Y115.59
G1 F1920 X118.09 Y123.74 E255.71098
G0 F15000 X118.66 Y123.74
G1 F1920 X126.24 Y116.16 E256.24718
G0 F15000 X126.24 Y116.72
G1 F1920 X119.22 Y123.74 E256.74343
G0 F15000 X119.79 Y123.74
G1 F1920 X126.24 Y117.29 E257.19965
G0 F15000 X126.24 Y117.85
G1 F1920 X120.35 Y123.74 E257.61586
G0 F15000 X120.92 Y123.74
G1 F1920 X126.24 Y118.42 E257.99211
G0 F15000 X126.24 Y118.98
G1 F1920 X121.48 Y123.74 E258.32834
G0 F15000 X122.05 Y123.74
G1 F1920 X126.24 Y119.55 E258.62454
G0 F15000 X126.24 Y120.12
G1 F1920 X122.61 Y123.74 E258.88080
G0 F15000 X123.18 Y123.74
G1 F1920 X126.24 Y120.68 E259.09703
G0 F15000 X126.24 Y121.25
G1 F1920 X123.75 Y123.74 E259.27324
G0 F15000 X124.31 Y123.74
G1 F1920 X126.24 Y121.81 E259.40950
G0 F15000 X126.24 Y122.38
G1 F1920 X124.88 Y123.74 E259.50574
G0 F15000 X125.44 Y123.74
G1 F1920 X126.24 Y122.94 E259.56195
G0 F15000 X126.24 Y123.51
G1 F1920 X126.01 Y123.74 E259.57818
;LAYER:2
M106 S35
G0 F15000 X126.40 Y123.90 Z0.50
;TYPE:WALL-INNER
G1 F2100 X103.60 Y123.90 E260.71818
G1 X103.60 Y101.10 E261.85818
G1 X126.40 Y101.10 E262.99818
G1 X126.40 Y123.90 E264.13818
G0 F15000 X126.80 Y124.30
;TYPE:WALL-OUTER
G1 F2100 X103.20 Y124.30 E265.31818
G1 X103.20 Y100.70 E266.49818
G1 X126.80 Y100.70 E267.67818
G1 X126.80 Y124.30 E268.85818
G0 F15000 X126.24 Y123.69
;TYPE:FILL
G1 F2100 X103.81 Y101.26 E270.44444
G0 F15000 X103.76 Y101.78
G1 F2100 X125.72 Y123.74 E271.99724
G0 F15000 X125.15 Y123.74
G1 F2100 X103.76 Y102.34 E273.51003
G0 F15000 X103.76 Y102.91
G1 F2100 X124.59 Y123.74 E274.98282
G0 F15000 X124.02 Y123.74
G1 F2100 X103.76 Y103.48 E276.41563
G0 F15000 X103.76 Y104.04
G1 F2100 X123.46 Y123.74 E277.80842
G0 F15000 X122.89 Y123.74
G1 F2100 X103.76 Y104.61 E279.16122
G0 F15000 X103.76 Y105.17
G1 F2100 X122.33 Y123.74 E280.47404
G0 F15000 X121.76 Y123.74
G1 F2100 X103.76 Y105.74 E281.74683
G0 F15000 X103.76 Y106.31
G1 F2100 X121.19 Y123.74 E282.97960
G0 F15000 X120.63 Y123.74
G1 F2100 X103.76 Y106.87 E284.17242
G0 F15000 X103.76 Y107.44
G1 F2100 X120.06 Y123.74 E285.32521
G0 F15000 X119.50 Y123.74
G1 F2100 X103.76 Y108.00 E286.43799
G0 F15000 X103.76 Y108.57
G1 F2100 X118.93 Y123.74 E287.51081
G0 F15000 X118.36 Y123.74
G1 F2100 X103.76 Y109.13 E288.54361
G0 F15000 X103.76 Y109.70
G1 F2100 X117.80 Y123.74 E289.53639
G0 F15000 X117.23 Y123.74
G1 F2100 X103.76 Y110.26 E290.48922
G0 F15000 X103.76 Y110.83
G1 F2100 X116.67 Y123.74 E291.40202
G0 F15000 X116.10 Y123.74
G1 F2100 X103.76 Y111.40 E292.27480
G0 F15000 X103.76 Y111.96
G1 F2100 X115.54 Y123.74 E293.10763
G0 F15000 X114.97 Y123.74
G1 F2100 X103.76 Y112.53 E293.90037
G0 F15000 X103.76 Y113.09
G1 F2100 X114.40 Y123.74 E294.65308
G0 F15000 X113.84 Y123.74
G1 F2100 X103.76 Y113.66 E295.36585
G0 F15000 X103.76 Y114.22
G1 F2100 X113.27 Y123.74 E296.03859
G0 F15000 X112.71 Y123.74
G1 F2100 X103.76 Y114.79 E296.67131
G0 F15000 X103.76 Y115.36
G1 F2100 X112.14 Y123.74 E297.26408
G0 F15000 X111.58 Y123.74
G1 F2100 X103.76 Y115.92 E297.81682
G0 F15000 X103.76 Y116.49
G1 F2100 X111.01 Y123.74 E298.32954
G0 F15000 X110.44 Y123.74
G1 F2100 X103.76 Y117.05 E298.80228
G0 F15000 X103.76 Y117.62
G1 F2100 X109.88 Y123.74 E299.23503
G0 F15000 X109.31 Y123.74
G1 F2100 X103.76 Y118.18 E299.62776
G0 F15000 X103.76 Y118.75
G1 F2100 X108.75 Y123.74 E299.98050
G0 F15000 X108.18 Y123.74
G1 F2100 X103.76 Y119.31 E300.29325
G0 F15000 X103.76 Y119.88
G1 F2100 X107.62 Y123.74 E300.56598
G0 F15000 X107.05 Y123.74
G1 F2100 X103.76 Y120.45 E300.79873
G0 F15000 X103.76 Y121.01
G1 F2100 X106.48 Y123.74 E300.99148
G0 F15000 X105.92 Y123.74
G1 F2100 X103.76 Y121.58 E301.14422
G0 F15000 X103.76 Y122.14
G1 F2100 X105.35 Y123.74 E301.25693
G0 F15000 X104.79 Y123.74
G1 F2100 X103.76 Y122.71 E301.32969
G0 F15000 X103.76 Y123.28
G1 F2100 X104.22 Y123.74 E301.36243
G0 F15000 X126.24 Y123.13
G1 F2100 X104.37 Y101.26 E302.90870
G0 F15000 X104.94 Y101.26
G1 F2100 X126.24 Y122.56 E304.41498
G0 F15000 X126.24 Y122.00
G1 F2100 X105.50 Y101.26 E305.88123
G0 F15000 X106.07 Y101.26
G1 F2100 X126.24 Y121.43 E307.30750
G0 F15000 X126.24 Y120.86
G1 F2100 X106.63 Y101.26 E308.69379
G0 F15000 X107.20 Y101.26
G1 F2100 X126.24 Y120.30 E310.04005
G0 F15000 X126.24 Y119.73
G1 F2100 X107.77 Y101.26 E311.34632
G0 F15000 X108.33 Y101.26
G1 F2100 X126.24 Y119.17 E312.61257
G0 F15000 X126.24 Y118.60
G1 F2100 X108.90 Y101.26 E313.83884
G0 F15000 X109.46 Y101.26
G1 F2100 X126.24 Y118.04 E315.02511
G0 F15000 X126.24 Y117.47
G1 F2100 X110.03 Y101.26 E316.17137
G0 F15000 X110.59 Y101.26
G1 F2100 X126.24 Y116.91 E317.27764
G0 F15000 X126.24 Y116.34
G1 F2100 X111.16 Y101.26 E318.34388
G0 F15000 X111.72 Y101.26
G1 F2100 X126.24 Y115.77 E319.37014
G0 F15000 X126.24 Y115.21
G1 F2100 X112.29 Y101.26 E320.35642
G0 F15000 X112.86 Y101.26
G1 F2100 X126.24 Y114.64 E321.30267
G0 F15000 X126.24 Y114.08
G1 F2100 X113.42 Y101.26 E322.20893
G0 F15000 X113.99 Y101.26
G1 F2100 X126.24 Y113.51 E323.07521
G0 F15000 X126.24 Y112.94
G1 F2100 X114.55 Y101.26 E323.90146
G0 F15000 X115.12 Y101.26
G1 F2100 X126.24 Y112.38 E324.68773
G0 F15000 X126.24 Y111.81
G1 F2100 X115.69 Y101.26 E325.43401
G0 F15000 X116.25 Y101.26
G1 F2100 X126.24 Y111.25 E326.14027
G0 F15000 X126.24 Y110.68
G1 F2100 X116.82 Y101.26 E326.80654
G0 F15000 X117.38 Y101.26
G1 F2100 X126.24 Y110.12 E327.43282
G0 F15000 X126.24 Y109.55
G1 F2100 X117.95 Y101.26 E328.01908
G0 F15000 X118.51 Y101.26
G1 F2100 X126.24 Y108.98 E328.56536
G0 F15000 X126.24 Y108.42
G1 F2100 X119.08 Y101.26 E329.07161
G0 F15000 X119.64 Y101.26
G1 F2100 X126.24 Y107.85 E329.53788
G0 F15000 X126.24 Y107.29
G1 F2100 X120.21 Y101.26 E329.96416
G0 F15000 X120.78 Y101.26
G1 F2100 X126.24 Y106.72 E330.35042
G0 F15000 X126.24 Y106.16
G1 F2100 X121.34 Y101.26 E330.69669
G0 F15000 X121.91 Y101.26
